; G-Code generated by Simplify3D(R) Version 4.0.1
; Apr 10, 2018 at 6:58:32 PM
; Settings Summary
;   processName,Medium Res 0.17 
;   applyToModels,monezor_enclosure
;   profileName,Default (modified)
;   profileVersion,2015-05-01 08:00:00
;   baseProfile,
;   printMaterial,
;   printQuality,
;   printExtruders,
;   extruderName,Extruder 1
;   extruderToolheadNumber,0
;   extruderDiameter,0.4
;   extruderAutoWidth,1
;   extruderWidth,0.48
;   extrusionMultiplier,1
;   extruderUseRetract,1
;   extruderRetractionDistance,0.5
;   extruderExtraRestartDistance,0
;   extruderRetractionZLift,0
;   extruderRetractionSpeed,2400
;   extruderUseCoasting,1
;   extruderCoastingDistance,0.2
;   extruderUseWipe,1
;   extruderWipeDistance,2
;   primaryExtruder,0
;   layerHeight,0.17
;   topSolidLayers,6
;   bottomSolidLayers,4
;   perimeterOutlines,2
;   printPerimetersInsideOut,1
;   startPointOption,3
;   startPointOriginX,200
;   startPointOriginY,0
;   sequentialIslands,0
;   spiralVaseMode,0
;   firstLayerHeightPercentage,150
;   firstLayerWidthPercentage,100
;   firstLayerUnderspeed,0.5
;   useRaft,1
;   raftExtruder,0
;   raftTopLayers,3
;   raftBaseLayers,2
;   raftOffset,2
;   raftSeparationDistance,0.18
;   raftTopInfill,100
;   aboveRaftSpeedMultiplier,0.3
;   useSkirt,0
;   skirtExtruder,0
;   skirtLayers,1
;   skirtOutlines,1
;   skirtOffset,1
;   usePrimePillar,0
;   primePillarExtruder,999
;   primePillarWidth,12
;   primePillarLocation,7
;   primePillarSpeedMultiplier,1
;   useOozeShield,0
;   oozeShieldExtruder,999
;   oozeShieldOffset,2
;   oozeShieldOutlines,1
;   oozeShieldSidewallShape,1
;   oozeShieldSidewallAngle,30
;   oozeShieldSpeedMultiplier,1
;   infillExtruder,0
;   internalInfillPattern,Rectilinear
;   externalInfillPattern,Rectilinear
;   infillPercentage,10
;   outlineOverlapPercentage,15
;   infillExtrusionWidthPercentage,125
;   minInfillLength,5
;   infillLayerInterval,1
;   internalInfillAngles,45,-45
;   overlapInternalInfillAngles,0
;   externalInfillAngles,45,-45
;   generateSupport,1
;   supportExtruder,0
;   supportInfillPercentage,30
;   supportExtraInflation,0
;   supportBaseLayers,0
;   denseSupportExtruder,0
;   denseSupportLayers,0
;   denseSupportInfillPercentage,70
;   supportLayerInterval,1
;   supportHorizontalPartOffset,1
;   supportUpperSeparationLayers,2
;   supportLowerSeparationLayers,2
;   supportType,0
;   supportGridSpacing,4
;   maxOverhangAngle,60
;   supportAngles,0
;   temperatureName,Extruder 1 Temperature,Heated Bed
;   temperatureNumber,0,0
;   temperatureSetpointCount,1,1
;   temperatureSetpointLayers,1,1
;   temperatureSetpointTemperatures,200,60
;   temperatureStabilizeAtStartup,1,1
;   temperatureHeatedBed,0,1
;   temperatureRelayBetweenLayers,0,0
;   temperatureRelayBetweenLoops,0,0
;   fanLayers,1,2,3,5
;   fanSpeeds,0,20,40,80
;   blipFanToFullPower,1
;   adjustSpeedForCooling,1
;   minSpeedLayerTime,5
;   minCoolingSpeedSlowdown,20
;   increaseFanForCooling,0
;   minFanLayerTime,45
;   maxCoolingFanSpeed,100
;   increaseFanForBridging,0
;   bridgingFanSpeed,100
;   use5D,1
;   relativeEdistances,0
;   allowEaxisZeroing,1
;   independentExtruderAxes,0
;   includeM10123,0
;   stickySupport,1
;   applyToolheadOffsets,0
;   gcodeXoffset,0
;   gcodeYoffset,0
;   gcodeZoffset,0
;   overrideMachineDefinition,0
;   machineTypeOverride,0
;   strokeXoverride,200
;   strokeYoverride,200
;   strokeZoverride,200
;   originOffsetXoverride,0
;   originOffsetYoverride,0
;   originOffsetZoverride,0
;   homeXdirOverride,-1
;   homeYdirOverride,-1
;   homeZdirOverride,-1
;   flipXoverride,1
;   flipYoverride,-1
;   flipZoverride,1
;   toolheadOffsets,0,0|0,0|0,0|0,0|0,0|0,0
;   overrideFirmwareConfiguration,0
;   firmwareTypeOverride,RepRap (Marlin/Repetier/Sprinter)
;   GPXconfigOverride,r2
;   baudRateOverride,115200
;   overridePrinterModels,0
;   printerModelsOverride
;   startingGcode,;M190 S{print_bed_temperature} 	;Uncomment to add your own bed temperature line,;M109 S{print_temperature} 		;Uncomment to add your own temperature line,G21       			;metric values,G90      			;absolute positioning,M82      			;set extruder to absolute mode,M107      			;start with the fan off,G28 X0 Y0 			;move X/Y to min endstops,G28 Z0     			;move Z to min endstops,G1 Z5.0 F1500			;move the platform down 15mm,G1 Z0			;move extruder to 0,G92 E0                		;zero the extruded length,G1 F900 E20              		;extrude 10mm of feed stock,G92 E0                 		;zero the extruded length again,G1 F{travel_speed},M117 Leave me alone!... 		;Put printing message on LCD screen
;   layerChangeGcode,
;   retractionGcode,
;   toolChangeGcode,
;   endingGcode,;End GCode,M104 S0 		;extruder heater off,M140 S0 		;heated bed heater off (if you have it),M107     		;disable fans,G91       		;relative positioning,G1 E-10 F900		;retract the filament a bit before lifting the nozzle to release some of the pressure,G1 Z+2 E-10 X-20 Y-20 F1500	;move Z up a bit and retract filament even more,G1 X0 Y200  F1500	;move bed to front,M84		;steppers off,G90		;absolute positioning,;{profile_string},M117 Hooooray!!!...	;Put printing message on LCD screen
;   exportFileFormat,gcode
;   celebration,0
;   celebrationSong,Star Wars
;   postProcessing,
;   defaultSpeed,2400
;   outlineUnderspeed,0.75
;   solidInfillUnderspeed,1
;   supportUnderspeed,1
;   rapidXYspeed,9000
;   rapidZspeed,1002
;   minBridgingArea,10
;   bridgingExtraInflation,0
;   bridgingExtrusionMultiplier,0.9
;   bridgingSpeedMultiplier,1
;   useFixedBridgingAngle,0
;   fixedBridgingAngle,0
;   applyBridgingToPerimeters,0
;   filamentDiameters,1.75|1.75|1.75|1.75|1.75|1.75
;   filamentPricesPerKg,36|36|36|36|36|36
;   filamentDensities,1.25|1.25|1.25|1.25|1.25|1.25
;   useMinPrintHeight,0
;   minPrintHeight,0
;   useMaxPrintHeight,0
;   maxPrintHeight,0
;   useDiaphragm,0
;   diaphragmLayerInterval,20
;   robustSlicing,1
;   mergeAllIntoSolid,0
;   onlyRetractWhenCrossingOutline,0
;   retractBetweenLayers,1
;   useRetractionMinTravel,0
;   retractionMinTravel,3
;   retractWhileWiping,0
;   onlyWipeOutlines,1
;   avoidCrossingOutline,0
;   maxMovementDetourFactor,3
;   toolChangeRetractionDistance,0
;   toolChangeExtraRestartDistance,0
;   toolChangeRetractionSpeed,360
;   externalThinWallType,0
;   internalThinWallType,2
;   thinWallAllowedOverlapPercentage,10
;   singleExtrusionMinLength,1
;   singleExtrusionMinPrintingWidthPercentage,50
;   singleExtrusionMaxPrintingWidthPercentage,200
;   singleExtrusionEndpointExtension,0.2
;   horizontalSizeCompensation,0
G90
M82
M106 S255
G4 P500
M106 S0
M140 S60
M190 S60
M104 S200 T0
M109 S200 T0
;M190 S{print_bed_temperature} 	;Uncomment to add your own bed temperature line
;M109 S{print_temperature} 		;Uncomment to add your own temperature line
G21       			;metric values
G90      			;absolute positioning
M82      			;set extruder to absolute mode
M107      			;start with the fan off
G28 X0 Y0 			;move X/Y to min endstops
G28 Z0     			;move Z to min endstops
G1 Z5.0 F1500			;move the platform down 15mm
G1 Z0			;move extruder to 0
G92 E0                		;zero the extruded length
G1 F900 E20              		;extrude 10mm of feed stock
G92 E0                 		;zero the extruded length again
G1 F{travel_speed}
M117 Leave me alone!... 		;Put printing message on LCD screen
G92 E0
G1 E-0.5000 F2400
G1 Z0.750 F1002
; process Medium Res 0.17 
; layer 1, Z = 0.750
T0
; tool H0.750 W0.800
; raft
G1 X62.379 Y70.097 F9000
G1 E0.0000 F720
G92 E0
G1 X97.921 Y70.097 E8.8661 F300
G1 X99.014 Y71.189 E9.2514
G1 X100.106 Y70.097 E9.6367
G1 X102.123 Y70.097 E10.1400
G1 X102.789 Y70.508 E10.3352
G1 X103.117 Y70.180 E10.4510
G1 X135.400 Y70.180 E18.5040
G1 X135.483 Y70.097 E18.5333
G1 X137.709 Y70.097 E19.0885
G1 X138.646 Y71.034 E19.4191
G1 X138.646 Y128.966 E33.8702
G1 X137.709 Y129.903 E34.2009
G1 X136.585 Y129.903 E34.4812
G1 X135.869 Y129.514 E34.6844
G1 X133.000 Y125.076 E36.0027
G1 X104.815 Y125.076 E43.0336
G1 X101.945 Y129.514 E44.3520
G1 X101.230 Y129.903 E44.5551
G1 X100.106 Y129.903 E44.8355
G1 X99.169 Y128.966 E45.1661
G1 X99.169 Y123.606 E46.5032
G1 X98.675 Y123.401 E46.6365
G1 X97.921 Y124.155 E46.9023
G1 X62.379 Y124.155 E55.7684
G1 X61.442 Y123.217 E56.0991
G1 X61.442 Y71.034 E69.1162
G1 X62.238 Y70.238 E69.3970
G1 X62.379 Y70.097 F300
G92 E0
G1 E-0.5000 F2400
G1 X104.336 Y101.820 F9000
G1 E0.0000 F2400
G92 E0
G1 X104.336 Y114.180 E3.0832 F300
G1 X130.180 Y114.180 E9.5299
G1 X130.180 Y101.820 E12.6131
G1 X104.536 Y101.820 E19.0100
G1 X104.336 Y101.820 F300
G92 E0
G1 E-0.5000 F2400
G1 X129.074 Y89.629 F9000
G1 E0.0000 F2400
G92 E0
G1 X129.625 Y90.180 E0.1945 F300
G1 X130.779 Y90.180 E0.4822
G1 X130.983 Y89.686 E0.6156
G1 X130.000 Y88.703 E0.9625
G1 X129.216 Y89.487 E1.2392
G1 X129.074 Y89.629 F300
G92 E0
G1 E-0.5000 F2400
G1 X130.980 Y104.571 F9000
G1 E0.0000 F2400
G92 E0
G1 X137.846 Y104.571 E1.7127 F300
G1 X137.846 Y106.857 E2.2829
G1 X130.980 Y106.857 E3.9956
G1 X130.980 Y109.143 E4.5658
G1 X137.846 Y109.143 E6.2785
G1 X137.846 Y111.429 E6.8487
G1 X131.180 Y111.429 E8.5115
G1 X130.980 Y111.429 F300
G92 E0
G1 E-0.5000 F2400
G1 X135.474 Y127.429 F9000
G1 E0.0000 F2400
G92 E0
G1 X137.646 Y127.429 E0.5418 F300
G1 X137.846 Y127.429 F300
G92 E0
G1 E-0.5000 F2400
G1 X102.341 Y127.429 F9000
G1 E0.0000 F2400
G92 E0
G1 X99.969 Y127.429 E0.5917 F300
G1 X99.969 Y125.143 E1.1619
G1 X103.818 Y125.143 E2.1222
G1 X104.379 Y124.276 E2.3798
G1 X133.435 Y124.276 E9.6279
G1 X133.996 Y125.143 E9.8856
G1 X137.846 Y125.143 E10.8459
G1 X137.846 Y122.857 E11.4161
G1 X99.452 Y122.857 E20.9936
G1 X98.487 Y122.458 E21.2540
G1 X98.088 Y122.857 E21.3950
G1 X62.242 Y122.857 E30.3368
G1 X62.242 Y120.571 E30.9069
G1 X137.846 Y120.571 E49.7665
G1 X137.846 Y118.286 E50.3367
G1 X62.242 Y118.286 E69.1962
G1 X62.242 Y116.000 E69.7664
G1 X137.846 Y116.000 E88.6260
G1 X137.846 Y113.714 E89.1961
G1 X130.980 Y113.714 E90.9089
G1 X130.980 Y114.980 E91.2246
G1 X103.536 Y114.980 E98.0704
G1 X103.536 Y113.714 E98.3862
G1 X62.242 Y113.714 E108.6872
G1 X62.242 Y111.429 E109.2573
G1 X103.536 Y111.429 E119.5583
G1 X103.536 Y109.143 E120.1285
G1 X62.242 Y109.143 E130.4295
G1 X62.242 Y106.857 E130.9997
G1 X103.536 Y106.857 E141.3007
G1 X103.536 Y104.571 E141.8708
G1 X62.242 Y104.571 E152.1718
G1 X62.242 Y102.286 E152.7420
G1 X103.536 Y102.286 E163.0430
G1 X103.536 Y101.020 E163.3588
G1 X130.980 Y101.020 E170.2046
G1 X130.980 Y102.286 E170.5203
G1 X137.846 Y102.286 E172.2331
G1 X137.846 Y100.000 E172.8032
G1 X62.242 Y100.000 E191.6628
G1 X62.242 Y97.714 E192.2330
G1 X137.846 Y97.714 E211.0925
G1 X137.846 Y95.429 E211.6627
G1 X62.242 Y95.429 E230.5223
G1 X62.242 Y93.143 E231.0924
G1 X137.846 Y93.143 E249.9520
G1 X137.846 Y90.857 E250.5222
G1 X131.364 Y90.857 E252.1390
G1 X131.313 Y90.980 E252.1722
G1 X129.294 Y90.980 E252.6759
G1 X129.171 Y90.857 E252.7192
G1 X62.242 Y90.857 E269.4149
G1 X62.242 Y88.571 E269.9851
G1 X129.000 Y88.571 E286.6380
G1 X130.000 Y87.571 E286.9908
G1 X131.000 Y88.571 E287.3436
G1 X137.846 Y88.571 E289.0513
G1 X137.846 Y86.286 E289.6215
G1 X62.242 Y86.286 E308.4810
G1 X62.242 Y84.000 E309.0512
G1 X137.846 Y84.000 E327.9108
G1 X137.846 Y81.714 E328.4809
G1 X62.242 Y81.714 E347.3405
G1 X62.242 Y79.429 E347.9107
G1 X137.846 Y79.429 E366.7702
G1 X137.846 Y77.143 E367.3404
G1 X62.242 Y77.143 E386.2000
G1 X62.242 Y74.857 E386.7701
G1 X137.846 Y74.857 E405.6297
G1 X137.846 Y72.571 E406.1999
G1 X62.442 Y72.571 E425.0095
G1 X62.242 Y72.571 F300
G92 E0
G1 E-0.5000 F2400
; layer 2, Z = 1.250
M106 S255
G4 P500
M106 S51
; tool H0.500 W0.800
G1 X61.442 Y71.034 F9000
G1 Z1.250 F1002
G1 E0.0000 F2400
G92 E0
G1 X62.379 Y70.097 E0.2204 F600
G1 X97.921 Y70.097 E6.1312
G1 X99.014 Y71.189 E6.3880
G1 X100.106 Y70.097 E6.6449
G1 X102.123 Y70.097 E6.9804
G1 X102.789 Y70.508 E7.1105
G1 X103.117 Y70.180 E7.1878
G1 X135.400 Y70.180 E12.5564
G1 X135.483 Y70.097 E12.5760
G1 X137.709 Y70.097 E12.9461
G1 X138.646 Y71.034 E13.1665
G1 X138.646 Y128.966 E22.8006
G1 X137.709 Y129.903 E23.0210
G1 X136.585 Y129.903 E23.2079
G1 X135.869 Y129.514 E23.3433
G1 X133.000 Y125.076 E24.2222
G1 X104.815 Y125.076 E28.9095
G1 X101.945 Y129.514 E29.7884
G1 X101.230 Y129.903 E29.9238
G1 X100.106 Y129.903 E30.1108
G1 X99.169 Y128.966 E30.3312
G1 X99.169 Y123.606 E31.2226
G1 X98.675 Y123.401 E31.3114
G1 X97.921 Y124.155 E31.4886
G1 X62.379 Y124.155 E37.3994
G1 X61.442 Y123.217 E37.6198
G1 X61.442 Y71.234 E46.2646
G1 X61.442 Y71.034 F600
G92 E0
G1 E-0.5000 F2400
G1 X104.336 Y101.820 F9000
G1 E0.0000 F2400
G92 E0
G1 X104.336 Y114.180 E2.0555 F600
G1 X130.180 Y114.180 E6.3533
G1 X130.180 Y101.820 E8.4088
G1 X104.536 Y101.820 E12.6733
G1 X104.336 Y101.820 F600
G92 E0
G1 E-0.5000 F2400
G1 X129.074 Y89.629 F9000
G1 E0.0000 F2400
G92 E0
G1 X129.625 Y90.180 E0.1297 F600
G1 X130.779 Y90.180 E0.3215
G1 X130.983 Y89.686 E0.4104
G1 X130.000 Y88.703 E0.6417
G1 X129.216 Y89.487 E0.8262
G1 X129.074 Y89.629 F600
G92 E0
G1 E-0.5000 F2400
G1 X130.980 Y104.571 F9000
G1 E0.0000 F2400
G92 E0
G1 X137.846 Y104.571 E1.1418 F600
G1 X137.846 Y106.857 E1.5219
G1 X130.980 Y106.857 E2.6638
G1 X130.980 Y109.143 E3.0439
G1 X137.846 Y109.143 E4.1857
G1 X137.846 Y111.429 E4.5658
G1 X131.180 Y111.429 E5.6744
G1 X130.980 Y111.429 F600
G92 E0
G1 E-0.5000 F2400
G1 X135.474 Y127.429 F9000
G1 E0.0000 F2400
G92 E0
G1 X137.646 Y127.429 E0.3612 F600
G1 X137.846 Y127.429 F600
G92 E0
G1 E-0.5000 F2400
G1 X102.341 Y127.429 F9000
G1 E0.0000 F2400
G92 E0
G1 X99.969 Y127.429 E0.3945 F600
G1 X99.969 Y125.143 E0.7746
G1 X103.818 Y125.143 E1.4148
G1 X104.379 Y124.276 E1.5866
G1 X133.435 Y124.276 E6.4186
G1 X133.996 Y125.143 E6.5904
G1 X137.846 Y125.143 E7.2306
G1 X137.846 Y122.857 E7.6107
G1 X99.452 Y122.857 E13.9957
G1 X98.487 Y122.458 E14.1694
G1 X98.088 Y122.857 E14.2633
G1 X62.242 Y122.857 E20.2245
G1 X62.242 Y120.571 E20.6046
G1 X137.846 Y120.571 E33.1777
G1 X137.846 Y118.286 E33.5578
G1 X62.242 Y118.286 E46.1308
G1 X62.242 Y116.000 E46.5109
G1 X137.846 Y116.000 E59.0840
G1 X137.846 Y113.714 E59.4641
G1 X130.980 Y113.714 E60.6059
G1 X130.980 Y114.980 E60.8164
G1 X103.536 Y114.980 E65.3803
G1 X103.536 Y113.714 E65.5908
G1 X62.242 Y113.714 E72.4581
G1 X62.242 Y111.429 E72.8382
G1 X103.536 Y111.429 E79.7055
G1 X103.536 Y109.143 E80.0857
G1 X62.242 Y109.143 E86.9530
G1 X62.242 Y106.857 E87.3331
G1 X103.536 Y106.857 E94.2004
G1 X103.536 Y104.571 E94.5806
G1 X62.242 Y104.571 E101.4479
G1 X62.242 Y102.286 E101.8280
G1 X103.536 Y102.286 E108.6953
G1 X103.536 Y101.020 E108.9058
G1 X130.980 Y101.020 E113.4697
G1 X130.980 Y102.286 E113.6802
G1 X137.846 Y102.286 E114.8220
G1 X137.846 Y100.000 E115.2022
G1 X62.242 Y100.000 E127.7752
G1 X62.242 Y97.714 E128.1553
G1 X137.846 Y97.714 E140.7283
G1 X137.846 Y95.429 E141.1085
G1 X62.242 Y95.429 E153.6815
G1 X62.242 Y93.143 E154.0616
G1 X137.846 Y93.143 E166.6347
G1 X137.846 Y90.857 E167.0148
G1 X131.364 Y90.857 E168.0927
G1 X131.313 Y90.980 E168.1148
G1 X129.294 Y90.980 E168.4506
G1 X129.171 Y90.857 E168.4795
G1 X62.242 Y90.857 E179.6099
G1 X62.242 Y88.571 E179.9900
G1 X129.000 Y88.571 E191.0920
G1 X130.000 Y87.571 E191.3272
G1 X131.000 Y88.571 E191.5624
G1 X137.846 Y88.571 E192.7009
G1 X137.846 Y86.286 E193.0810
G1 X62.242 Y86.286 E205.6540
G1 X62.242 Y84.000 E206.0341
G1 X137.846 Y84.000 E218.6072
G1 X137.846 Y81.714 E218.9873
G1 X62.242 Y81.714 E231.5603
G1 X62.242 Y79.429 E231.9404
G1 X137.846 Y79.429 E244.5135
G1 X137.846 Y77.143 E244.8936
G1 X62.242 Y77.143 E257.4666
G1 X62.242 Y74.857 E257.8468
G1 X137.846 Y74.857 E270.4198
G1 X137.846 Y72.571 E270.7999
G1 X62.442 Y72.571 E283.3397
G1 X62.242 Y72.571 F600
G92 E0
G1 E-0.5000 F2400
; layer 3, Z = 1.472
M106 S255
G4 P500
M106 S102
; tool H0.222 W0.400
G1 X61.242 Y71.442 F9000
G1 Z1.472 F1002
G1 E0.0000 F2400
G92 E0
G1 X62.787 Y69.897 E0.0807 F1800
G1 X63.352 Y69.897 E0.1016
G1 X61.242 Y72.007 E0.2119
G1 X61.242 Y72.573 E0.2328
G1 X63.918 Y69.897 E0.3727
G1 X64.484 Y69.897 E0.3936
G1 X61.242 Y73.139 E0.5631
G1 X61.242 Y73.704 E0.5840
G1 X65.049 Y69.897 E0.7830
G1 X65.615 Y69.897 E0.8039
G1 X61.242 Y74.270 E1.0324
